!!!COM: Bach, Johann Sebastian
!!!CDT: 1685/3//-1750/7/28/
!!!OTL@@DE: O Haupt voll Blut und Wunden
!!!OTL@EN:  O sacred head now wounded
!!!OPR: Christmas Oratorio
!!!AGN: 4-Part Chorale
!!!SCT: BH 345
!!!SCT: BWV 248
**harm	**root	**kern	**kern	**kern	**kern
!	!	!bass	!tenor	!alto	!soprno
*	*Iorgan	*Iorgan	*Iorgan	*Iorgan	*Iorgan
*	*	*clefF4	*clefF4	*clefF4	*clefF4
*M4/4	*M4/4	*M4/4	*M4/4	*M4/4	*M4/4
*met(c)	*met(c)	*met(c)	*met(c)	*met(c)	*met(c)
*MM56	*MM56	*MM56	*MM56	*MM56	*MM56
*k[b-e-a-]	*k[b-e-a-]	*k[b-e-a-]	*k[b-e-a-]	*k[b-e-a-]	*k[b-e-a-]
*c:	*c:	*c:	*c:	*c:	*c:
*>[A,A,B]	*>[A,A,B]	*>[A,A,B]	*>[A,A,B]	*>[A,A,B]	*>[A,A,B]
*>A	*>A	*>A	*>A	*>A	*>A
V7	4EE	4G	4B	8g	4g
.	.	.	.	8f	.
=1	=1	=1	=1	=1	=1
VI	4FF	4A-	4c	8e-	4cc
.	.	.	.	8f	.
-VII	4GG	4B-	4d	8f	4b-
.	.	.	.	8g	.
VI7b	8FF	8c	8e-	8g	4a-
iio	8BB	8d	8f	8f	.
III	4CC	4e-	4B-	8f	4g
.	.	.	.	8e-	.
=2	=2	=2	=2	=2	=2
iv	2DD	2A-	8c	4e-	2f
.	.	.	8B	.	.
.	.	.	4c	8d	.
.	.	.	.	8c	.
V	4EE	4G;	4B;	4d;	4g;
V	4EE	4G	4B	4g	4dd
=3	=3	=3	=3	=3	=3
i	4AA	8c	8c	4g	4ee-
.	.	8B-	8d	.	.
VI	4FF	8A-	4e-	4cc	4ee-
.	.	8G	.	.	.
ii7D	4BB	8F	4a-	4cc	8dd
.	.	8D	.	.	16ee-
.	.	.	.	.	16ff
V7	4EE	4G	8g	4b	4dd
.	.	.	8f	.	.
=4	=4	=4	=4	=4	=4
i	2.AA	2.C;	2.e-;	2.g;	2.cc;
=:|!	=:|!	=:|!	=:|!	=:|!	=:|!
*>B	*>B	*>B	*>B	*>B	*>B
i	4AA	4c	4g	8cc	4ee-
.	.	.	.	8b-	.
=5	=5	=5	=5	=5	=5
iiob	4BB	4F	8f	4a-	8dd
.	.	.	8e-	.	8cc
v	4EE	4G	4d	8g	4b-
.	.	.	.	8f	.
VI	4FF	8A-	8c	4e-	4cc
.	.	8G	8B-	.	.
iiob	4BB	4F	8A-	4a-	4dd
.	.	.	8B-	.	.
=6	=6	=6	=6	=6	=6
VIb	4FF	8C	4c	4a-	2ee-
.	.	8D	.	.	.
III	4CC	4E-	8B-	8g	.
.	.	.	8A-	8f	.
III	4CC	4E-;	4B-;	4g;	4ee-;
III	4CC	4E-	4e-	4g	4b-
!!linebreak: 2
=7	=7	=7	=7	=7	=7
VI	4FF	8A-	8e-	4a-	4cc
.	.	8G	8f	.	.
V7b/IV	4AA	8F	4g	8d-	4b-
.	.	8E	.	8c	.
iv	8DD	4F	8f	8c	8a-
vii/IV	8CC#	.	8e	8B-	8g
iv	8DD	4F	8f	8c	4a-
vii7Dc	8GG#	.	8B	8f	.
=8	=8	=8	=8	=8	=8
I	2.AA	2.C;	2.c;	2.e;	2.g;
V7b/-VII	4DD	4A	4c	4f	4ee-
=9	=9	=9	=9	=9	=9
-VII	4GG	4B-	8B-	4f	8dd
.	.	.	8c	.	8ee-
-VII	4GG	8B-	4d	4b-	4ff
.	.	8A	.	.	.
IIIb	4CC	4.G	8e-	8b-	4ee-
.	.	.	8f	8a	.
V	4EE	.	4g	4b-	4dd
.	.	8F	.	.	.
=10	=10	=10	=10	=10	=10
i7	4AA	8E-	4g	4b-	2cc
.	.	8C	.	.	.
V/-VII	4DD	4F	4f	4a	.
-VII	4GG	4BB-;	4f;	4b-;	4dd;
III	4CC	8E-	4e-	4b-	4g
.	.	8D	.	.	.
=11	=11	=11	=11	=11	=11
VIb	8FF	8C	8e-	8e-	4a-
iio	8BB	8D	8d	8f	.
ib	4AA	[4E-	8d	4e-	4g
.	.	.	8c	.	.
ii7D	4BB	8E-]	4c	4A-	4f
.	.	[8D	.	.	.
-VIIb	8GG	8D]	8B-	4f	8b-
ivc	8DD	8C	8c	.	8a-
=12	=12	=12	=12	=12	=12
V7b	4EE	4BB	4d	4f	2.g;
i	4AA	4C	4c	4e-	.
V	4EE	4G;	4B;	4d;	.
==	==	==	==	==	==
*-	*-	*-	*-	*-	*-
!!chor2scor: -l 2 -s 0.6 -o %b.pmx
!!!YEC: Copyright 2003 by Craig Stuart Sapp
!!!license: GNU General Public License (http://www.gnu.org/copyleft/gpl.html)
!!!SMA: 371 Bach Chorales, edited by Ludwig Erk, C.F. Peters
!!!PDT: 1850, 1865
!!!ONB: Harmony and Root analysis done manually by Craig Sapp
